assets/images/script/r.svg

<svg fill="none" height="243" viewBox="0 0 3090 243" width="3090" xmlns="http://www.w3.org/2000/svg"><g stroke="#000"><g stroke-dasharray="10 10"><path d="m0 150.5h3090"/><path d="m0 238.5h3090"/><path d="m0 90.5h3090"/><path d="m0 .5h3090"/></g><g stroke-linecap="round" stroke-width="5"><path d="m43.3503 114.142c6.7744 4.386 14.2885 5.156 22.1283 5.101 18.3565 0 35.6174-10.93 26.4178-22.3256-8.9443-11.0792-31.5601-4.7127-41.6012-.1417-15.7499 7.1693-25.9682 20.8793-10.9621 35.4773 20.6287 20.068 56.7497 18.863 81.0239 11.939 16.332-4.658 33.431-6.804 46.912-17.837 6.214-5.085 17.079-17.235 11.779-26.5665-6.905-12.1589-37.265-11.7327-41.057 3.2585-3.263 12.902 0 23.308 17.688 33.089 39.781 21.997 62.321 11.893 62.321 11.893" stroke-opacity=".3"/><path d="m43.3503 114.142c6.7744 4.386 14.2885 5.156 22.1283 5.101 18.3565 0 35.6174-10.93 26.4178-22.3256-8.9443-11.0792-31.5601-4.7127-41.6012-.1417-15.7499 7.1693-25.9682 20.8793-10.9621 35.4773 20.6287 20.068 56.7497 18.863 81.0239 11.939"/><path d="m559.281 140.102c.443 7.968 12.689 8.423 18.639 9.319 17.841 2.686 36.439.353 53.812-4.209 25.239-6.627 45.278-35.251 18.939-54.8056-19.477-14.4601-48.353-13.8402-71.323-13.6034-28.64.2953-56.57 3.6089-84.702 8.643-11.24 2.0115-43.46 11.1981-33.895 4.9604 20.844-13.594 43.856-24.203 66.814-33.595 42.252-17.2848 86.305-40.1174 131.223-48.65964 20.485-3.89555 52.344-11.059 67.791 8.11694 5.127 6.3636 7.74 14.2933 10.222 21.9457 5.024 15.4917 15.374 39.214 20.279 54.7473 5.44 17.2253 8.147 23.0393 4.071 41.5173-6.374 28.9-55.402 14.134-36.3-12.851 30.231-42.7077 94.097-25.6461 137.461-9.877" stroke-opacity=".3"/><path d="m726.579 16.2686c5.126 6.3636 7.74 14.2933 10.222 21.9456 5.024 15.4918 15.374 39.2141 20.279 54.7474 5.44 17.2254 8.147 23.0394 4.071 41.5174-6.375 28.899-55.402 14.134-36.3-12.852 30.231-42.7068 94.096-25.6452 137.461-9.876"/><path d="m954.656 120.713c-1.485 2.97 26.903-3.269 28.86-4.059 12.854-5.181 19.334-17.2133 1.954-22.3963-14.608-4.3569-36.436 7.8203-37.427 24.0503-1.551 25.391 39.695 30.204 57.267 32.271 28.34 3.334 73.44-2.484 94.25-26.096 16.68-18.928-17.74-29.4612-30.67-29.4612-8.54 0-19.31 1.4278-24.42 9.2442-5.91 9.03-.43 20.134 6.99 26.38 16.48 13.876 42.01 16.819 62.6 18.113 20.76 1.303 40.67-.44 61.11-2.931" stroke-opacity=".3"/><path d="m1005.31 150.579c28.34 3.333 73.44-2.485 94.25-26.096 16.68-18.928-17.74-29.4613-30.67-29.4613-8.54 0-19.31 1.4278-24.42 9.2443-5.91 9.03-.43 20.134 6.99 26.38 16.48 13.876 42.01 16.819 62.6 18.113 20.76 1.303 40.67-.44 61.11-2.931"/><path d="m1571.47 8.87652c2.17-2.47708-6.07-1.37033-7.36-1.35282-20.8.28105-41.54 1.35282-62.38 1.35282-20.6 0-41.15.5605-61.63-1.95407-3.84-.47215-9-2.41762-7.97-1.50313 33.68 29.93178 47.83 59.11908 59.76 100.75368 8.39 29.303 16.2 59.272 18.86 89.737 1.11 12.627 5.76 37.406-10.22 43.348-10.94 4.067-15.67-2.689-16.68-13.378-2.78-29.317 11.99-57.678 24.42-83.331 9.94-20.511 22.72-39.672 42.69-51.5578 13.93-8.2935 34.85-16.3558 46.97-1.0522 9.37 11.819 15.59 28.874 17.29 43.741 1.18 10.348-4.97 25.242-18.11 17.512-13.32-7.833-1.57-33.821 4.96-42.013 10.76-13.4947 27.57-23.7826 44.87-22.5469" stroke-opacity=".3"/><path d="m1550.96 90.9912c13.93-8.2935 34.85-16.3558 46.97-1.0522 9.37 11.819 15.59 28.874 17.29 43.741 1.18 10.348-4.97 25.242-18.11 17.512-13.32-7.833-1.57-33.821 4.96-42.013 10.76-13.4948 27.57-23.7826 44.87-22.5469"/><path d="m1860.59 133.652c-2.58-2.257.84 2.042 1.13 2.33 10.12 10.122 23.91 15.609 38.1 16.535 23.72 1.546 72.76-23.014 71.55-52.9731-1.26-31.4248-49.24-28.6764-69.67-26.38-32.23 3.624-64.43 11.5046-95.97 19.0146-13.37 3.1838 26.08-8.7028 39.23-12.7014 55.38-16.8381 111.59-29.4664 167.45-44.4175 14.2-3.8003 36.77-6.886 48.02-17.5866 8.61-8.18271-13-10.94268-16.68-11.49896-13.29-2.0057-30.93-4.61832-43.37 2.17953-14.75 8.06493 5.64 15.24933 11.73 18.03753" stroke-opacity=".3"/><path d="m2012.41 35.0596c14.19-3.8003 36.77-6.886 48.02-17.5866 8.6-8.18271-13-10.94268-16.68-11.49896-13.29-2.0057-30.93-4.61832-43.37 2.17953-14.75 8.06493 5.64 15.24933 11.73 18.03753"/><path d="m2301.12 135.769c-10.49 0 20.78 3.996 31.27 3.608 12.87-.477 57.42-10.897 51.4-31.341-4.93-16.7855-32.74-14.6861-42.99-5.035-7.59 7.154-3.88 18.565 1.58 25.779 8.35 11.028 22.89 17.239 36.15 19.615 28.33 5.075 55.28-10.302 75.39-28.86 18.57-17.147 32.82-30.3671 57.53-14.505 13.59 8.725 17.1 30.54-3.37 36.491-17.8 5.172-27.67 1.728-37.86-14.28" stroke-opacity=".3"/><path d="m2453.92 119.535c18.57-17.147 32.82-30.3672 57.53-14.505 13.59 8.724 17.1 30.54-3.37 36.491-17.8 5.172-27.67 1.728-37.86-14.28"/><path d="m2916.76 6.78179c-.45 3.60941-44.9.70563-48.1.70563-26.43 0-52.47-3.41127-78.77-3.41127-.66 0-4.48-.43335-4.81.22547-1.65 3.31122 22.22 29.99978 23.95 32.53648 19.19 28.1411 35.18 58.3465 47.12 90.2399 10.09 26.95 18.7 59.469 9.4 87.933-4.03 12.312-12.94 25.227-27.21 24.727-12.95-.455-19.86-13.382-21.04-24.877-2.56-24.725 8.14-52.269 17.81-74.405 7.35-16.826 21.87-34.145 39.55-43.1943 27.51-14.0782 62.71 23.9563 51 48.5003-3.1 6.511-25.65 14.13-30.5 2.5-4.65-11.161 5-21.184 15.48-31.255" stroke-opacity=".3"/><path d="m2874.66 97.2617c27.51-14.0781 62.71 23.9563 51 48.5003-3.1 6.511-25.65 14.13-30.5 2.5-4.65-11.161 5-21.184 15.48-31.255"/></g></g></svg>

<svg width="3090" height="243" viewBox="0 0 3090 243" fill="none" xmlns="http://www.w3.org/2000/svg">
<line y1="150.5" x2="3090" y2="150.5" stroke="black" stroke-dasharray="10 10"/>
<line y1="238.5" x2="3090" y2="238.5" stroke="black" stroke-dasharray="10 10"/>
<line y1="90.5" x2="3090" y2="90.5" stroke="black" stroke-dasharray="10 10"/>
<line y1="0.5" x2="3090" y2="0.5" stroke="black" stroke-dasharray="10 10"/>
<path d="M43.3503 114.142C50.1247 118.528 57.6388 119.298 65.4786 119.243C83.8351 119.243 101.096 108.313 91.8964 96.9174C82.9521 85.8382 60.3363 92.2047 50.2952 96.7757C34.5453 103.945 24.327 117.655 39.3331 132.253C59.9618 152.321 96.0828 151.116 120.357 144.192C136.689 139.534 153.788 137.388 167.269 126.355C173.483 121.27 184.348 109.12 179.048 99.7885C172.143 87.6296 141.783 88.0558 137.991 103.047C134.728 115.949 137.991 126.355 155.679 136.136C195.46 158.133 218 148.029 218 148.029" stroke="black" stroke-opacity="0.3" stroke-width="5" stroke-linecap="round"/>
<path d="M43.3503 114.142C50.1247 118.528 57.6388 119.298 65.4786 119.243C83.8351 119.243 101.096 108.313 91.8964 96.9174C82.9521 85.8382 60.3363 92.2047 50.2952 96.7757C34.5453 103.945 24.327 117.655 39.3331 132.253C59.9618 152.321 96.0828 151.116 120.357 144.192" stroke="black" stroke-width="5" stroke-linecap="round"/>
<path d="M559.281 140.102C559.724 148.07 571.97 148.525 577.92 149.421C595.761 152.107 614.359 149.774 631.732 145.212C656.971 138.585 677.01 109.961 650.671 90.4064C631.194 75.9463 602.318 76.5662 579.348 76.803C550.708 77.0983 522.778 80.4119 494.646 85.446C483.406 87.4575 451.186 96.6441 460.751 90.4064C481.595 76.8124 504.607 66.2034 527.565 56.8114C569.817 39.5266 613.87 16.694 658.788 8.15176C679.273 4.25621 711.132 -2.90724 726.579 16.2687C731.706 22.6323 734.319 30.562 736.801 38.2144C741.825 53.7061 752.175 77.4284 757.08 92.9617C762.52 110.187 765.227 116.001 761.151 134.479C754.777 163.379 705.749 148.613 724.851 121.628C755.082 78.9203 818.948 95.9819 862.312 111.751" stroke="black" stroke-opacity="0.3" stroke-width="5" stroke-linecap="round"/>
<path d="M726.579 16.2686C731.705 22.6322 734.319 30.5619 736.801 38.2142C741.825 53.706 752.175 77.4283 757.08 92.9616C762.52 110.187 765.227 116.001 761.151 134.479C754.776 163.378 705.749 148.613 724.851 121.627C755.082 78.9202 818.947 95.9818 862.312 111.751" stroke="black" stroke-width="5" stroke-linecap="round"/>
<path d="M954.656 120.713C953.171 123.683 981.559 117.444 983.516 116.654C996.37 111.473 1002.85 99.4407 985.47 94.2577C970.862 89.9008 949.034 102.078 948.043 118.308C946.492 143.699 987.738 148.512 1005.31 150.579C1033.65 153.913 1078.75 148.095 1099.56 124.483C1116.24 105.555 1081.82 95.0218 1068.89 95.0218C1060.35 95.0218 1049.58 96.4496 1044.47 104.266C1038.56 113.296 1044.04 124.4 1051.46 130.646C1067.94 144.522 1093.47 147.465 1114.06 148.759C1134.82 150.062 1154.73 148.319 1175.17 145.828" stroke="black" stroke-opacity="0.3" stroke-width="5" stroke-linecap="round"/>
<path d="M1005.31 150.579C1033.65 153.912 1078.75 148.094 1099.56 124.483C1116.24 105.555 1081.82 95.0217 1068.89 95.0217C1060.35 95.0217 1049.58 96.4495 1044.47 104.266C1038.56 113.296 1044.04 124.4 1051.46 130.646C1067.94 144.522 1093.47 147.465 1114.06 148.759C1134.82 150.062 1154.73 148.319 1175.17 145.828" stroke="black" stroke-width="5" stroke-linecap="round"/>
<path d="M1571.47 8.87652C1573.64 6.39944 1565.4 7.50619 1564.11 7.5237C1543.31 7.80475 1522.57 8.87652 1501.73 8.87652C1481.13 8.87652 1460.58 9.43702 1440.1 6.92245C1436.26 6.4503 1431.1 4.50483 1432.13 5.41932C1465.81 35.3511 1479.96 64.5384 1491.89 106.173C1500.28 135.476 1508.09 165.445 1510.75 195.91C1511.86 208.537 1516.51 233.316 1500.53 239.258C1489.59 243.325 1484.86 236.569 1483.85 225.88C1481.07 196.563 1495.84 168.202 1508.27 142.549C1518.21 122.038 1530.99 102.877 1550.96 90.9912C1564.89 82.6977 1585.81 74.6354 1597.93 89.939C1607.3 101.758 1613.52 118.813 1615.22 133.68C1616.4 144.028 1610.25 158.922 1597.11 151.192C1583.79 143.359 1595.54 117.371 1602.07 109.179C1612.83 95.6843 1629.64 85.3964 1646.94 86.6321" stroke="black" stroke-opacity="0.3" stroke-width="5" stroke-linecap="round"/>
<path d="M1550.96 90.9912C1564.89 82.6977 1585.81 74.6354 1597.93 89.939C1607.3 101.758 1613.52 118.813 1615.22 133.68C1616.4 144.028 1610.25 158.922 1597.11 151.192C1583.79 143.359 1595.54 117.371 1602.07 109.179C1612.83 95.6842 1629.64 85.3964 1646.94 86.6321" stroke="black" stroke-width="5" stroke-linecap="round"/>
<path d="M1860.59 133.652C1858.01 131.395 1861.43 135.694 1861.72 135.982C1871.84 146.104 1885.63 151.591 1899.82 152.517C1923.54 154.063 1972.58 129.503 1971.37 99.5439C1970.11 68.1191 1922.13 70.8675 1901.7 73.1639C1869.47 76.7879 1837.27 84.6685 1805.73 92.1785C1792.36 95.3623 1831.81 83.4757 1844.96 79.4771C1900.34 62.639 1956.55 50.0107 2012.41 35.0596C2026.61 31.2593 2049.18 28.1736 2060.43 17.473C2069.04 9.29029 2047.43 6.53032 2043.75 5.97404C2030.46 3.96834 2012.82 1.35572 2000.38 8.15357C1985.63 16.2185 2006.02 23.4029 2012.11 26.1911" stroke="black" stroke-opacity="0.3" stroke-width="5" stroke-linecap="round"/>
<path d="M2012.41 35.0596C2026.6 31.2593 2049.18 28.1736 2060.43 17.473C2069.03 9.29029 2047.43 6.53032 2043.75 5.97404C2030.46 3.96834 2012.82 1.35572 2000.38 8.15357C1985.63 16.2185 2006.02 23.4029 2012.11 26.1911" stroke="black" stroke-width="5" stroke-linecap="round"/>
<path d="M2301.12 135.769C2290.63 135.769 2321.9 139.765 2332.39 139.377C2345.26 138.9 2389.81 128.48 2383.79 108.036C2378.86 91.2505 2351.05 93.3499 2340.8 103.001C2333.21 110.155 2336.92 121.566 2342.38 128.78C2350.73 139.808 2365.27 146.019 2378.53 148.395C2406.86 153.47 2433.81 138.093 2453.92 119.535C2472.49 102.388 2486.74 89.1679 2511.45 105.03C2525.04 113.755 2528.55 135.57 2508.08 141.521C2490.28 146.693 2480.41 143.249 2470.22 127.241" stroke="black" stroke-opacity="0.3" stroke-width="5" stroke-linecap="round"/>
<path d="M2453.92 119.535C2472.49 102.388 2486.74 89.1678 2511.45 105.03C2525.04 113.754 2528.55 135.57 2508.08 141.521C2490.28 146.693 2480.41 143.249 2470.22 127.241" stroke="black" stroke-width="5" stroke-linecap="round"/>
<path d="M2916.76 6.78179C2916.31 10.3912 2871.86 7.48742 2868.66 7.48742C2842.23 7.48742 2816.19 4.07615 2789.89 4.07615C2789.23 4.07615 2785.41 3.6428 2785.08 4.30162C2783.43 7.61284 2807.3 34.3014 2809.03 36.8381C2828.22 64.9792 2844.21 95.1846 2856.15 127.078C2866.24 154.028 2874.85 186.547 2865.55 215.011C2861.52 227.323 2852.61 240.238 2838.34 239.738C2825.39 239.283 2818.48 226.356 2817.3 214.861C2814.74 190.136 2825.44 162.592 2835.11 140.456C2842.46 123.63 2856.98 106.311 2874.66 97.2617C2902.17 83.1835 2937.37 121.218 2925.66 145.762C2922.56 152.273 2900.01 159.892 2895.16 148.262C2890.51 137.101 2900.16 127.078 2910.64 117.007" stroke="black" stroke-opacity="0.3" stroke-width="5" stroke-linecap="round"/>
<path d="M2874.66 97.2617C2902.17 83.1836 2937.37 121.218 2925.66 145.762C2922.56 152.273 2900.01 159.892 2895.16 148.262C2890.51 137.101 2900.16 127.078 2910.64 117.007" stroke="black" stroke-width="5" stroke-linecap="round"/>
</svg>
